svg/file/archive_fill.svg

<?xml version="1.0" encoding="UTF-8"?>
<svg width="24px" height="24px" viewBox="0 0 24 24" version="1.1" xmlns="http://www.w3.org/2000/svg" xmlns:xlink="http://www.w3.org/1999/xlink">
    <title>archive_fill</title>
    <g id="Icon" stroke="none" stroke-width="1" fill="none" fill-rule="evenodd">
        <g id="File" transform="translate(-480.000000, -432.000000)">
            <g id="archive_fill" transform="translate(480.000000, 432.000000)">
                <path d="M24,0 L24,24 L0,24 L0,0 L24,0 Z M12.5935,23.2578 L12.5819,23.2595 L12.5109,23.295 L12.4919,23.2987 L12.4767,23.295 L12.4057,23.2595 C12.3958,23.2564 12.387,23.259 12.3821,23.2649 L12.378,23.2758 L12.3609,23.7031 L12.3659,23.7235 L12.3769,23.7357 L12.4805,23.8097 L12.4953,23.8136 L12.5071,23.8097 L12.6107,23.7357 L12.6233,23.7197 L12.6267,23.7031 L12.6096,23.2758 C12.6076,23.2657 12.601,23.2593 12.5935,23.2578 Z M12.8584,23.1453 L12.8445,23.1473 L12.6598,23.2397 L12.6499,23.2499 L12.6472,23.2611 L12.6651,23.6906 L12.6699,23.7034 L12.6784,23.7105 L12.8793,23.8032 C12.8914,23.8069 12.9022,23.803 12.9078,23.7952 L12.9118,23.7812 L12.8777,23.1665 C12.8753,23.1546 12.8674,23.147 12.8584,23.1453 Z M12.143,23.1473 C12.1332,23.1424 12.1222,23.1453 12.1156,23.1526 L12.1099,23.1665 L12.0758,23.7812 C12.0751,23.7927 12.0828,23.8019 12.0926,23.8046 L12.1083,23.8032 L12.3092,23.7105 L12.3186,23.7024 L12.3225,23.6906 L12.3404,23.2611 L12.3372,23.2485 L12.3278,23.2397 L12.143,23.1473 Z" id="MingCute" fill-rule="nonzero"></path>
                <path d="M7.41421,3 C6.88378,3 6.37507,3.21071 6,3.58579 L3.58579,6 C3.30991,6.27588 3.12295,6.62406 3.04336,7 L20.9566,7 C20.8771,6.62406 20.6901,6.27588 20.4142,6 L18,3.58579 C17.6249,3.21071 17.1162,3 16.5858,3 L7.41421,3 Z M21,9 L3,9 L3,19 C3,20.1046 3.89543,21 5,21 L19,21 C20.1046,21 21,20.1046 21,19 L21,9 Z M12,11 C12.5523,11 13,11.4477 13,12 L13,15.1858 L13.4142,14.7715 C13.8047,14.381 14.4379,14.381 14.8284,14.7715 C15.219,15.1621 15.219,15.7952 14.8284,16.1858 L12.7071,18.3071 C12.3166,18.6976 11.6834,18.6976 11.2929,18.3071 L9.17157,16.1858 C8.78105,15.7952 8.78105,15.1621 9.17157,14.7715 C9.5621,14.381 10.1953,14.381 10.5858,14.7715 L11,15.1858 L11,12 C11,11.4477 11.4477,11 12,11 Z" id="形状" fill="#09244B"></path>
            </g>
        </g>
    </g>
</svg>

<svg xmlns="http://www.w3.org/2000/svg" width="24" height="24"><g fill="none" fill-rule="evenodd"><path d="M24 0v24H0V0h24ZM12.594 23.258l-.012.002-.071.035-.02.004-.014-.004-.071-.036c-.01-.003-.019 0-.024.006l-.004.01-.017.428.005.02.01.013.104.074.015.004.012-.004.104-.074.012-.016.004-.017-.017-.427c-.002-.01-.009-.017-.016-.018Zm.264-.113-.014.002-.184.093-.01.01-.003.011.018.43.005.012.008.008.201.092c.012.004.023 0 .029-.008l.004-.014-.034-.614c-.003-.012-.01-.02-.02-.022Zm-.715.002a.023.023 0 0 0-.027.006l-.006.014-.034.614c0 .012.007.02.017.024l.015-.002.201-.093.01-.008.003-.011.018-.43-.003-.012-.01-.01-.184-.092Z"/><path fill="#09244B" d="M7.414 3A2 2 0 0 0 6 3.586L3.586 6a2 2 0 0 0-.543 1h17.914a2 2 0 0 0-.543-1L18 3.586A2 2 0 0 0 16.586 3H7.414ZM21 9H3v10a2 2 0 0 0 2 2h14a2 2 0 0 0 2-2V9Zm-9 2a1 1 0 0 1 1 1v3.186l.414-.415a1 1 0 0 1 1.414 1.415l-2.12 2.121a1 1 0 0 1-1.415 0l-2.121-2.121a1 1 0 0 1 1.414-1.415l.414.415V12a1 1 0 0 1 1-1Z"/></g></svg>
